assets/pen-tool-2.svg

<svg width="50" height="50" viewBox="0 0 50 50" fill="none" xmlns="http://www.w3.org/2000/svg">
<path d="M22.3961 46.8748H27.6461C29.6461 46.8748 30.9378 45.4581 30.5628 43.729L29.7086 39.9583H20.3336L19.4794 43.729C19.1044 45.354 20.5211 46.8748 22.3961 46.8748Z" stroke="#292D32" stroke-width="3" stroke-linecap="round" stroke-linejoin="round"/>
<path d="M29.6251 26.3956L27.4376 23.6248C26.1042 21.9373 23.9167 21.9373 22.5834 23.6248L16.2292 31.6871C14.6251 33.708 14.6251 35.0206 16.7292 36.7497L20.3334 39.9581" stroke="#292D32" stroke-width="3" stroke-linecap="round" stroke-linejoin="round"/>
<path d="M29.7083 39.937L33.3124 36.7286C35.3333 34.937 35.4166 33.6868 33.8124 31.666" stroke="#292D32" stroke-width="3" stroke-linecap="round" stroke-linejoin="round"/>
<path d="M25.0208 23.1665V28.4374" stroke="#292D32" stroke-width="3" stroke-linecap="round" stroke-linejoin="round"/>
<path d="M26.0834 10.4167H24.0001C22.8542 10.4167 21.9167 9.47925 21.9167 8.33341V6.25008C21.9167 5.10425 22.8542 4.16675 24.0001 4.16675H26.0834C27.2292 4.16675 28.1667 5.10425 28.1667 6.25008V8.33341C28.1667 9.47925 27.2292 10.4167 26.0834 10.4167Z" stroke="#292D32" stroke-width="3" stroke-linecap="round" stroke-linejoin="round"/>
<path d="M6.81258 29.5209H8.89591C10.0417 29.5209 10.9792 28.5834 10.9792 27.4375V25.3542C10.9792 24.2084 10.0417 23.2708 8.89591 23.2708H6.81258C5.66675 23.2708 4.72925 24.2084 4.72925 25.3542V27.4375C4.72925 28.5834 5.66675 29.5209 6.81258 29.5209Z" stroke="#292D32" stroke-width="3" stroke-linecap="round" stroke-linejoin="round"/>
<path d="M43.1874 29.5209H41.1041C39.9583 29.5209 39.0208 28.5834 39.0208 27.4375V25.3542C39.0208 24.2084 39.9583 23.2708 41.1041 23.2708H43.1874C44.3333 23.2708 45.2708 24.2084 45.2708 25.3542V27.4375C45.2708 28.5834 44.3333 29.5209 43.1874 29.5209Z" stroke="#292D32" stroke-width="3" stroke-linecap="round" stroke-linejoin="round"/>
<path d="M7.8125 23.2709C7.8125 19.1667 9.35418 15.4376 11.8958 12.6042" stroke="#292D32" stroke-width="3" stroke-linecap="round" stroke-linejoin="round"/>
<path d="M21.9164 7.41675C20.5831 7.58341 19.2914 7.89594 18.0623 8.35427" stroke="#292D32" stroke-width="3" stroke-linecap="round" stroke-linejoin="round"/>
<path d="M42.1876 23.2709C42.1876 15.1042 36.0626 8.39591 28.1667 7.41675" stroke="#292D32" stroke-width="3" stroke-linecap="round" stroke-linejoin="round"/>
</svg>

<svg xmlns="http://www.w3.org/2000/svg" width="50" height="50" fill="none" stroke="#292d32" stroke-width="3" stroke-linejoin="round" xmlns:v="https://vecta.io/nano"><path d="M22.396 46.875h5.25c2 0 3.292-1.417 2.917-3.146l-.854-3.771h-9.375l-.854 3.771c-.375 1.625 1.042 3.146 2.917 3.146z"/><path d="M29.625 26.396l-2.187-2.771c-1.333-1.687-3.521-1.687-4.854 0l-6.354 8.062c-1.604 2.021-1.604 3.334.5 5.063l3.604 3.208m9.374-.021l3.604-3.208c2.021-1.792 2.104-3.042.5-5.063m-8.791-8.499v5.271" stroke-linecap="round"/><path d="M26.083 10.417H24a2.09 2.09 0 0 1-2.083-2.083V6.25A2.09 2.09 0 0 1 24 4.167h2.083a2.09 2.09 0 0 1 2.083 2.083v2.083a2.09 2.09 0 0 1-2.083 2.083zM6.813 29.521h2.083a2.09 2.09 0 0 0 2.083-2.083v-2.083a2.09 2.09 0 0 0-2.083-2.083H6.813a2.09 2.09 0 0 0-2.083 2.083v2.083a2.09 2.09 0 0 0 2.083 2.083zm36.374 0h-2.083a2.09 2.09 0 0 1-2.083-2.083v-2.083a2.09 2.09 0 0 1 2.083-2.083h2.083a2.09 2.09 0 0 1 2.083 2.083v2.083a2.09 2.09 0 0 1-2.083 2.083z"/><path d="M7.813 23.271a15.9 15.9 0 0 1 4.083-10.667m10.02-5.187c-1.333.167-2.625.479-3.854.938m24.126 14.916c0-8.167-6.125-14.875-14.021-15.854" stroke-linecap="round"/></svg>
